build/img/letter-icon.svg

<svg width="80" height="80" viewBox="0 0 80 80" fill="none" xmlns="http://www.w3.org/2000/svg">
<path d="M0.625 64.0001H8.945L12.529 53.6961H31.345L34.993 64.0001H43.889L26.481 17.6001H17.905L0.625 64.0001ZM21.873 27.0081L28.913 46.9121H14.897L21.873 27.0081Z" fill="black"/>
<path d="M69.1625 50.4321C69.1625 56.3201 65.8345 59.1361 60.2025 59.1361C56.3625 59.1361 53.8665 57.3441 53.8665 54.3361C53.8665 50.4321 58.2825 48.8321 69.1625 47.8081V50.4321ZM58.5385 64.8321C63.6585 64.8321 67.6265 63.1041 69.8665 59.3281C70.0585 61.6961 70.2505 62.5281 70.5065 64.0001H77.4825C76.7785 61.1201 76.4585 56.5761 76.4585 52.2241C76.4585 49.0881 76.5865 44.9921 76.5865 43.3281C76.7785 32.3201 70.3145 28.5441 62.0585 28.5441C53.7385 28.5441 47.9145 33.4081 47.4025 40.3841H54.8905C55.0825 36.2241 57.9625 34.1761 61.8025 34.1761C65.6425 34.1761 68.9705 35.9681 68.9705 41.8561V42.4961C56.4265 43.8401 45.8025 45.8881 45.8025 54.5281C45.8025 60.8001 51.0505 64.8321 58.5385 64.8321Z" fill="black"/>
</svg>

<svg width="80" height="80" viewBox="0 0 80 80" fill="none" xmlns="http://www.w3.org/2000/svg"><path d="M.625 64h8.32l3.584-10.304h18.816L34.993 64h8.896L26.481 17.6h-8.576L.625 64zm21.248-36.992l7.04 19.904H14.897l6.976-19.904zm47.289 23.424c0 5.888-3.328 8.704-8.96 8.704-3.84 0-6.335-1.792-6.335-4.8 0-3.904 4.416-5.504 15.295-6.528v2.624zm-10.624 14.4c5.12 0 9.088-1.728 11.329-5.504.191 2.368.383 3.2.64 4.672h6.975c-.704-2.88-1.023-7.424-1.023-11.776 0-3.136.127-7.232.127-8.896.192-11.008-6.272-14.784-14.527-14.784-8.32 0-14.145 4.864-14.656 11.84h7.488c.192-4.16 3.072-6.208 6.912-6.208s7.168 1.792 7.168 7.68v.64c-12.545 1.344-23.169 3.392-23.169 12.032 0 6.272 5.248 10.304 12.736 10.304z" fill="#000"/></svg>
